X:5
T:The Ground
L:1/4
M:C
K:Bb -8 treble8
%%pageheight 11 in
%%staffwidth 6.5 in
%%leftmargin .75 in
%
[Bbd']> c' d'e'|ff'c'f|[Gbd] ABc|d>d'ad|[Bbd']> c' d'e'|ff'c'f|[gbd']g'[dad']c'|\
        [G2gd'g'] [g2d'g']:|
%abctab2ps format
%
